!!!COM: Music21
!!!OTL: Rumba de Anxeriz
!!!OMV: pezas_rumbas_rumba-de-anxeriz_rumba-de-anxeriz-partitura.musicxml
**kern
*part1
*staff1
*I"Voz
*I'Ch
*
*clefG^2
*k[]
=1
!LO:TX:a:t=Prestissimo
*MM240
!LO:TX:a:t=[quarter]=240
2r
4gg
4gg
=||
4.gg
.
8ff
4ee
4dd
=
4cc
4cc
4gg
4gg
=
4.ff
.
8ee
4ff
4ee
=
4dd
4r
4ff
4ff
!!linebreak:original
=
4.ff
.
8ee
4dd
4cc
=
4b
4b
4dd
4dd
=
4ee
4ee
4dd
4dd
=
2cc
.
[2cc
.
=
1cc_
.
.
.
=
4cc]
4r
4gg
4gg
!!linebreak:original
=
4.gg
.
8ff
4ee
4dd
=
4cc
4gg
4gg
4gg
=
4.ff
.
8ee
4ff
4ee
=
4dd
4r
4ff
4ff
=
4.ff
.
8ee
4dd
4cc
=
4b
4b
4dd
4dd
!!linebreak:original
=
4ee
4ee
4dd
4dd
=||
2cc
.
[2cc
.
=
1cc_
.
.
.
=
4cc]
4r
2r
.
=
1r
.
.
.
=
4r
4r
4gg
4gg
!!linebreak:original
=||
2cc
.
[2cc
.
=
1cc_
.
.
.
!!pagebreak:original
=
4cc]
4r
2r
.
=
1r
.
.
.
=
4r
4r
2r
==
*-
!!!system-decoration: s1,s2
